src/assets/icons/multicolor/arrowRight.multicolor.svg

<svg width="40" height="41" fill="none">
  <path fill="#093971" d="M33.5631 20.9259c.1087-.1184.163-.2696.163-.4208 0-.1494-.0532-.2993-.16-.4178l-7.4416-8.2821c-.227-.2528-.6127-.2708-.8618-.0397-.249.2306-.2654.6229-.039.8751l6.4741 7.2057H6.875v1.2531h24.8667l-6.5729 7.2025c-.2295.2498-.2149.6421.0329.8752.2465.2323.6329.2175.8618-.0335l7.4996-8.2177z"/>
  <path fill="#093971" d="M20 40.8095c11.0457 0 20-9.0964 20-20.3174C40 9.27104 31.0457.174591 20 .174591 8.95425.174591 0 9.27104 0 20.4921c0 11.221 8.95425 20.3174 20 20.3174zm0-1.2698c-10.33881 0-18.75-8.5447-18.75-19.0476C1.25 9.98919 9.66119 1.44443 20 1.44443c10.3388 0 18.75 8.54476 18.75 19.04767 0 10.5029-8.4112 19.0476-18.75 19.0476z"/>
</svg>

<svg width="40" height="41" viewBox="0 0 40 41" fill="none" xmlns="http://www.w3.org/2000/svg">
<path d="M33.5631 20.9259C33.6718 20.8075 33.7261 20.6563 33.7261 20.5051C33.7261 20.3557 33.6729 20.2058 33.5661 20.0873L26.1245 11.8052C25.8975 11.5524 25.5118 11.5344 25.2627 11.7655C25.0137 11.9961 24.9973 12.3884 25.2237 12.6406L31.6978 19.8463L6.875 19.8463L6.875 21.0994L31.7417 21.0994L25.1688 28.3019C24.9393 28.5517 24.9539 28.944 25.2017 29.1771C25.4482 29.4094 25.8346 29.3946 26.0635 29.1436L33.5631 20.9259Z" fill="#093971"/>
<path d="M20 40.8095C31.0457 40.8095 40 31.7131 40 20.4921C40 9.27104 31.0457 0.174591 20 0.174591C8.95425 0.174591 0 9.27104 0 20.4921C0 31.7131 8.95425 40.8095 20 40.8095ZM20 39.5397C9.66119 39.5397 1.25 30.995 1.25 20.4921C1.25 9.98919 9.66119 1.44443 20 1.44443C30.3388 1.44443 38.75 9.98919 38.75 20.4921C38.75 30.995 30.3388 39.5397 20 39.5397Z" fill="#093971"/>
</svg>
